X: 114
T: No_41_Victory_Song.krn
%%abc-version 2.0
%%abcx-abcm2ps-target-version 5.9.1 (29 Sep 2008)
%%abc-creator hum2abc beta
%%abcx-conversion-date 2020/08/10 18:54:57
%%gracespace 0 6 6
%%humdrum-veritas 2449399042
%%humdrum-veritas-data 2587735304
%%linebreak <none>
%%barnumbers 0
L: 1/8
M: 2/4
%%staves {1 2}
V: 1 clef=bass
V: 2 clef=bass
K: G
[V:1] D/ [I:setbarnb 1]| 
[V:2] z/ | 
[V:1] D>D DD ||  
[V:2] G,,G,, G,,G,, ||  
[V:1] [M:3/4]D<D (3B,A,G,G,2 ||  
[V:2] [M:3/4]G,,G,, G,,G,, G,,G,, ||  
[V:1] [M:2/4]E,/G,G,/G,2 ||  
[V:2] [M:2/4]z4 ||  
[V:1] [M:3/4]B,<D B,(3:2:2A,/G, G,3/E,/ ||  
[V:2] [M:3/4]z6 ||  
[V:1] [M:2/4]G,>G, G,G, ||  
[V:2] [M:2/4]z4 ||  
[V:1] [M:3/4]G,G, E,(3:2:2D,/D,D,2 | 
[V:2] [M:3/4]z6 | 
[V:1] _E,>E, E,>E,E,2 ||  
[V:2] z6 ||  
[V:1] [M:2/4]D,2B,,2 | 
[V:2] [M:2/4]z4 | 
[V:1] G,,>G,,G,,2 | 
[V:2] z4 | 
[V:1] G,,4 |]  
[V:2] z4 |]  


